src/topics/icons/netuitive.svg

<?xml version="1.0" encoding="UTF-8" standalone="no"?>
<svg width="256px" height="165px" viewBox="0 0 256 165" version="1.1" xmlns="http://www.w3.org/2000/svg" xmlns:xlink="http://www.w3.org/1999/xlink" preserveAspectRatio="xMidYMid">
    <g>
        <path d="M131.432,57.982 L165.033,98.549 L193.433,49.893 C191.257,43.128 175.321,0 122.827,0 C72.016,0 48.66,45.484 54.396,81.134 C49.59,77.128 2.131,79.803 0,120.881 L92.94,120.881 L131.432,57.982 Z M212.2216,51.8738 L162.3696,137.4758 L126.3096,96.9098 L102.7236,138.0908 L1.8856,138.0908 C10.7446,166.9218 46.2016,164.7258 46.2016,164.7258 L180.1936,164.7258 C180.1936,164.7258 256.0006,166.7738 256.0006,105.7198 C256.0006,66.7068 230.5836,55.1468 212.2216,51.8738 Z" fill="#2D9EEB"></path>
    </g>
</svg>

<svg height="165" preserveAspectRatio="xMidYMid" viewBox="0 0 256 165" width="256" xmlns="http://www.w3.org/2000/svg"><path d="m131.432 57.982 33.601 40.567 28.4-48.656c-2.176-6.765-18.112-49.893-70.606-49.893-50.811 0-74.167 45.484-68.431 81.134-4.806-4.006-52.265-1.331-54.396 39.747h92.94zm80.7896-6.1082-49.852 85.602-36.06-40.566-23.586 41.181h-100.838c8.859 28.831 44.316 26.635 44.316 26.635h133.992s75.807 2.048 75.807-59.006c0-39.013-25.417-50.573-43.779-53.846z" fill="#2d9eeb"/></svg>
